src/assets/images/svg/bch.svg

<svg width="11" height="14" viewBox="0 0 11 14" fill="none" xmlns="http://www.w3.org/2000/svg">
<path fill-rule="evenodd" clip-rule="evenodd" d="M5.04188 0L3.87583 0.342875L4.42578 2.26408C4.11727 2.35218 3.8061 2.45238 3.50228 2.54742L2.95524 0.613154L1.78978 0.955679L2.3463 2.92642C2.0934 3.00261 1.85229 3.08153 1.60683 3.15413L0 3.62058L0.363597 4.90345C0.363597 4.90345 1.22439 4.63623 1.21345 4.65324C1.68557 4.51109 1.92264 4.75025 2.03192 4.98095L2.43732 6.42928L2.78819 7.68813L3.54984 10.4035C3.56704 10.5616 3.55593 10.8321 3.22495 10.9335C3.24092 10.9451 2.3745 11.1841 2.3745 11.1841L2.5406 12.6795L4.05687 12.2343C4.33822 12.1526 4.62366 12.0782 4.89697 12.0004L5.45946 14L6.62552 13.6571L6.06421 11.6779L5.68069 10.2166L4.93568 7.56589C5.06853 7.53006 5.20489 7.48083 5.35279 7.43529C5.82013 7.28464 6.27119 7.06998 6.71045 6.8526C6.98404 6.72205 7.24166 6.57992 7.50193 6.4257C7.88554 6.18665 8.23136 5.88892 8.52746 5.5428C8.77674 5.25829 9.06092 4.91101 9.14827 4.52089C9.25162 4.06949 9.16445 3.6047 8.99912 3.18461C8.46624 1.80129 7.13666 1.6712 5.59866 1.96978L5.04188 0ZM8.47552 6.30291C8.21822 6.51851 8.08603 6.62841 7.81157 6.81209L7.4262 7.07201C7.9608 7.11382 8.40794 7.34507 8.57417 7.93219C8.88801 9.03409 7.59399 9.62197 6.57403 9.95113L6.98865 11.4159L7.0046 11.4793L7.55346 13.3817L8.71182 13.0434L8.14907 11.0447C10.0723 10.3584 11.3071 9.44788 10.9334 7.49509C10.7127 6.28538 10.0192 5.65128 9.21886 5.48199C9.21561 5.49444 9.20023 5.50356 9.19698 5.516C9.01014 5.76432 8.73222 6.08766 8.47552 6.30291ZM6.9826 4.35845C7.36727 5.71383 5.25129 6.16548 4.59163 6.35561L3.913 3.9505C4.5771 3.76826 6.58283 2.93836 6.9826 4.35845Z" fill="#76C85A"/>
</svg>

<svg width="11" height="14" fill="none" xmlns="http://www.w3.org/2000/svg"><path fill-rule="evenodd" clip-rule="evenodd" d="M5.042 0L3.876.343l.55 1.921c-.309.088-.62.188-.924.283L2.955.613 1.79.956l.556 1.97c-.253.077-.494.156-.74.228L0 3.621l.364 1.282s.86-.267.85-.25c.472-.142.709.097.818.328l.405 1.448.351 1.26.762 2.714c.017.159.006.43-.325.53.016.012-.85.251-.85.251l.166 1.496 1.516-.446c.281-.081.567-.156.84-.234l.562 2 1.167-.343-.562-1.98-.383-1.46-.745-2.651c.133-.036.269-.085.417-.13.467-.151.918-.366 1.357-.583.274-.13.532-.273.792-.427.384-.24.73-.537 1.025-.883.25-.285.534-.632.621-1.022.104-.452.016-.916-.149-1.336C8.466 1.8 7.137 1.67 5.6 1.97L5.042 0zm3.434 6.303a6.53 6.53 0 01-.664.51l-.386.259c.535.042.982.273 1.148.86.314 1.102-.98 1.69-2 2.02l.415 1.464.016.063.548 1.903 1.159-.339-.563-1.998c1.923-.687 3.158-1.597 2.784-3.55-.22-1.21-.914-1.844-1.714-2.013-.003.012-.019.022-.022.034a5.157 5.157 0 01-.721.787zM6.983 4.358c.384 1.356-1.732 1.807-2.391 1.998L3.913 3.95c.664-.183 2.67-1.013 3.07.407z" fill="#76C85A"/></svg>
